src/images/app-icons/dark-theme/WatsonKnowledgeCatalog.svg

<svg xmlns="http://www.w3.org/2000/svg" viewBox="0 0 32 32"><defs><linearGradient id="WatsonKnowledgeCatalog_svg__a" x1="1661.359" y1="-617.475" x2="1670.359" y2="-617.475" gradientTransform="translate(-1640.622 634.975)" gradientUnits="userSpaceOnUse"><stop offset=".001" stop-opacity="0"/><stop offset=".83"/></linearGradient><linearGradient id="WatsonKnowledgeCatalog_svg__c" y1="32" x2="32" gradientUnits="userSpaceOnUse"><stop offset=".1" stop-color="#be95ff"/><stop offset=".9" stop-color="#4589ff"/></linearGradient><mask id="WatsonKnowledgeCatalog_svg__b" x="0" y="0" width="32" height="32" maskUnits="userSpaceOnUse"><path fill="#fff" d="M12 8h8v2h-8z"/><path d="M16 28H6v-4h2v-2H6v-5h2v-2H6v-5h2V8H6V4h18v17h2V4a2 2 0 00-2-2H6a2 2 0 00-2 2v4H2v2h2v5H2v2h2v5H2v2h2v4a2 2 0 002 2h10z" fill="#fff"/><path fill="#fff" d="M12 13h8v2h-8zM12 18h8v2h-8z"/><path transform="rotate(90 25.237 17.5)" fill="url(#WatsonKnowledgeCatalog_svg__a)" d="M20.737 15.737h9v3.525h-9z" data-name="Gradients (black)"/></mask></defs><g data-name="Layer 2"><g data-name="Dark theme icons"><g mask="url(#WatsonKnowledgeCatalog_svg__b)"><path fill="url(#WatsonKnowledgeCatalog_svg__c)" d="M0 0h32v32H0z"/></g><path fill="#f4f4f4" d="M23 27.18l-2.59-2.59L19 26l4 4 7-7-1.41-1.41L23 27.18z"/></g></g></svg>

<svg xmlns="http://www.w3.org/2000/svg" xmlns:xlink="http://www.w3.org/1999/xlink" viewBox="0 0 32 32"><defs><style>.cls-1{fill:#fff;}.cls-2{fill:url(#linear-gradient);}.cls-3{mask:url(#mask);}.cls-4{fill:url(#linear-gradient-2);}.cls-5{fill:#f4f4f4;}</style><linearGradient id="linear-gradient" x1="1661.359" y1="-617.475" x2="1670.359" y2="-617.475" gradientTransform="translate(-1640.622 634.975)" gradientUnits="userSpaceOnUse"><stop offset="0.001" stop-opacity="0"/><stop offset="0.83"/></linearGradient><mask id="mask" x="0" y="0" width="32" height="32" maskUnits="userSpaceOnUse"><rect class="cls-1" x="12" y="8" width="8" height="2"/><path class="cls-1" d="M16,28H6V24H8V22H6V17H8V15H6V10H8V8H6V4H24V21h2V4a2,2,0,0,0-2-2H6A2,2,0,0,0,4,4V8H2v2H4v5H2v2H4v5H2v2H4v4a2,2,0,0,0,2,2H16Z"/><rect class="cls-1" x="12" y="13" width="8" height="2"/><rect class="cls-1" x="12" y="18" width="8" height="2"/><g id="Gradients_black_" data-name="Gradients (black)"><rect class="cls-2" x="20.737" y="15.737" width="9" height="3.525" transform="translate(42.737 -7.737) rotate(90)"/></g></mask><linearGradient id="linear-gradient-2" y1="32" x2="32" gradientUnits="userSpaceOnUse"><stop offset="0.1" stop-color="#be95ff"/><stop offset="0.9" stop-color="#4589ff"/></linearGradient></defs><g id="Layer_2" data-name="Layer 2"><g id="Dark_theme_icons" data-name="Dark theme icons"><g class="cls-3"><rect class="cls-4" width="32" height="32"/></g><polygon class="cls-5" points="23 27.18 20.41 24.59 19 26 23 30 30 23 28.59 21.59 23 27.18"/></g></g></svg>
